X:4454
L:1/8
M:4/4
K:D
 D2 dF D/D/D dF | EfTed B/B/B B2 | A>Bd>F A>Bd>e | f>dg>e fdd :: f/g/ | a>fdf a>baf | 
 g>ba>g e/e/e e(f/g/ | a>)fd>f a>bTa>f | g>eTaf d/d/d dg/a/ | b>ga>f g>ef>d | gbaf e/e/e Te>f | 
 d>BAG (TF>E)DF | a>ea>f d/d/d d2 :|

